X:5
T:Melodious Accord (E minor)
R:jig
C:Jim McGraw
O:Co. Fermanagh, Ireland
S:http://www.cranfordpub.com/recordings/mcgraw.htm
D:Melodious Accord, Jim McGraw
Z:psc
N:on the recording Jim plays the tune in both A & E minor
H:This brings about agreement between the Melodeon and the fiddle music
L:1/8
Q:300
M:6/8
K:Edor
Eed B2 A|BGF EFG|AdB ABG|FGE DFA|
Bed B2 A|BGF EFG|AFD A,DF|EFD E2 z:|
|:efe edB|BAG FGE|DFA dfe|dAG FED|
GBd FAd|EGB e2 d|dAG FED|EFD E2 z:|
